!!!COM: Music21
!!!OTL: strathspey_Lord-Balgownies-Favourite
!!!OMV: strathspey_Lord-Balgownies-Favourite
**kern
*clefG2
*k[]
*M4/4
=1
8e
=
4a
8.aL
16bJk
8aL
8gJ
4e
=
4cc
8.ccL
16eeJk
8.ddL
16ccJk
16bKL
8.gJ
=
16aKL
8.aJ
4ee
8.aL
16gJk
8eL
8cJ
=
16dKL
8.dJ
8.eL
16g#XJk
8a
8AL
8AJ
8ryy
=||
*M4/4
8e
!!linebreak:original
=
4a
8.aL
16bJk
8aL
8gJ
4e
=
4cc
8.ccL
16eeJk
8.ddL
16ccJk
16bKL
8.gJ
=
16aKL
8.aJ
4ee
8.aL
16gJk
8eL
8cJ
=
16dKL
8.dJ
8.eL
16g#XJk
8a
8AL
8AJ
8ryy
=||
8B
2..ryy
!!linebreak:original
=
4c
8.cL
16eJk
8.dL
16cJk
8BL
8dJ
=
8.cL
16BJk
8AL
8cJ
8BL
8eJ
4G#X 4e
=
4cc
8ccL
8eeJ
8.ddL
16ccJk
8bL
8ddJ
=
8.cc
16aLL
16cc
16bJJ
16aLL
16gJJ
8e
8aL
8aJ
8ryy
=||
8B
2..ryy
!!linebreak:original
=
4c
8.cL
16eJk
8.dL
16cJk
8BL
8dJ
=
8.cL
16BJk
8AL
8cJ
8BL
8eJ
4G#X 4e
=
4cc
8ccL
8eeJ
8.ddL
16ccJk
8bL
8ddJ
=
8.cc
16aLL
16cc
16bJJ
16aLL
16gJJ
8e
8aL
8aJ
8ryy
=||
8b
2..ryy
!!linebreak:original
=
16ccKL
8.ccJ
4gg
8.bL
16ccJk
4dd
=
8.ccL
16bJk
8aL
8ccJ
8bL
8eeJ
4ee
=
4e
8fL
16eL
16dJJ
8eL
8aJ
8bL
8ddJ
=
8.cc
16aLL
16cc
16bJJ
16aLL
16gJJ
8e
8aL
8aJ
8ryy
=||
8b
2..ryy
!!linebreak:original
=
16ccKL
8.ccJ
4gg
8.bL
16ccJk
4dd
=
8.ccL
16bJk
8aL
8ccJ
8bL
8eeJ
4ee
=
4e
8fL
16eL
16dJJ
8eL
8aJ
8bL
8ddJ
=
8.cc
16aLL
16cc
16bJJ
16aLL
16gJJ
8e
8aL
8aJ
8ryy
=||
*-
